!!!COM: Music21
!!!OTL: jig_Shepherdess--The
!!!OMV: jig_Shepherdess--The
**kern
*clefG2
*k[f#]
*G:
*M6/8
=1
8c
=
8BL
8e
8gJ
4b
8a
=
8gL
8e
8eJ
4e
8f#
=
8gL
8f#
8gJ
4b
8a
=
8gL
8f#
8eJ
4d
8c
=
8BL
8e
8gJ
4b
8a
=
8gL
8e
8eJ
4e
8gg
!!linebreak:original
=
8eeL
8dd
8ccJ
4b
8a
=
8gL
8f#
8eJ
4d
8ryy
=||
*M6/8
8c
=
8BL
8e
8gJ
4b
8a
=
8gL
8e
8eJ
4e
8f#
=
8gL
8f#
8gJ
4b
8a
=
8gL
8f#
8eJ
4d
8c
!!linebreak:original
=
8BL
8e
8gJ
4b
8a
=
8gL
8e
8eJ
4e
8gg
=
8eeL
8dd
8ccJ
4b
8a
=
8gL
8f#
8eJ
4d
8ryy
=||
8ee
2ryy
8ryy
=
4dd
8cc
4b
8a
=
4g
8a
4b
8ee
=
4dd
8cc
4b
8a
!!linebreak:original
=
8gL
8e
8eJ
4e
8ee
=
4dd
8cc
4b
8a
=
4g
8a
4b
8g
=
8aL
8g
8aJ
4b
8a
=
8gL
8f#
8eJ
4d
8ee
=
4dd
8cc
4b
8a
=
4g
8a
4b
8ee
=
4dd
8cc
4b
8a
!!linebreak:original
=
8gL
8e
8eJ
4e
16eeLL
16ff#JJ
=
8ggL
8ff#
8eeJ
8ddL
8cc
8bJ
=
8aL
8g
8aJ
8bL
8dd
8ggJ
=
8eeL
8dd
8ccJ
4b
8a
=
8gL
8f#
8eJ
4d
8c
=||
*-
